X: 79
T: POLKA: Dark Girl Dressed in Blue
C: C: Trad.; S: Ann Kelsey; James Morrison & John McKenna
C: Set Leaders: Mars, Anton
Z: Mars Agliullin ed., Anton Zille ed.; ceolachan at The Session
N: https://thesession.org/members/26966/sets/94260
R: Polka
M: 2/4
L: 1/8
Q: 1/4=140
K: Dmaj
|:FA A>d|Bd A>F|GB AF/A/|BE G/F/E/D/|
FA Ad|Bd AF|GB A/B/A/G/|1 FD D>E:|2 FD D2 ||
|:FA A/B/d/e/|ff/d/ ed|B/c/d/B/ AF/A/|BE G/F/E/D/|
FA A/B/d/e/|ff/d/ ed|BB A/B/A/G/|1 FD D2 :|2 FD D>E||

